X: 318
T: SLIGO AIR
T: Fonn Sligaigh
B: O'Neill's 318
M: 3/4
L: 1/8
Z: 1999 by John Chambers <jc@trillian.mit.edu>
N: "Slow with expression"
K:G
dA \
| B>A (.G.A.B.G.) | E2 D2 ((3D>EG) | A2 A(B/c/) BG | B2 A2 dA |
| B>A (.G.A.B.>G.) | E2 D2 ((3D>EG) | A2 Ac(B{d}c) | {B}A2 G2 |
|| GE \
| D2 E2 (G/A/)(B/c/) | d3 edc | B2 A2 ((3~G>AB) | A4 dA |
| B>A GA {c}B{A}G | E2 D2 (A/B/)(c/d/) | A3 cB{d}c | {B}A2 G2 ||


